img/title.svg

<svg width="1430" height="164" viewBox="0 0 1430 164" fill="none" xmlns="http://www.w3.org/2000/svg">
<mask id="path-1-outside-1" maskUnits="userSpaceOnUse" x="0" y="0" width="1430" height="164" fill="black">
<rect fill="white" width="1430" height="164"/>
<path d="M23.9793 151.971H105.68L58.6133 22.5371L9.10441 158.631H2L58.6133 3L115.227 158.631H23.9793V151.971Z"/>
<path d="M152.058 151.971H224.434L178.922 44.7384L130.523 158.631H123.418L178.922 27.6434L234.425 158.631H152.058V151.971Z"/>
<path d="M313.925 94.0253L344.118 158.631H336.792L305.71 92.0272C306.006 91.8792 307.264 91.2871 309.484 90.2511C311.852 89.067 313.481 88.2529 314.369 87.8089C315.257 87.2169 316.737 86.2548 318.809 84.9227C320.881 83.5907 322.435 82.3326 323.471 81.1485C324.507 79.8165 325.617 78.3364 326.801 76.7083C328.133 74.9322 329.095 73.0081 329.687 70.9359C330.28 68.7158 330.576 66.3477 330.576 63.8315C330.576 54.507 326.135 47.6246 317.255 43.1843C308.374 38.7441 297.348 36.5239 284.175 36.5239H266.414V158.631H259.753V29.8636H284.175C301.64 29.8636 314.813 32.8977 323.693 38.9661C332.722 45.0344 337.236 53.3229 337.236 63.8315C337.236 70.6399 334.942 76.7083 330.354 82.0366C325.765 87.2169 320.289 91.2131 313.925 94.0253Z"/>
<path d="M439.057 36.746C434.024 35.1179 427.808 34.3038 420.407 34.3038C413.007 34.3038 406.791 35.1179 401.758 36.746C396.726 38.226 392.064 41.1122 387.772 45.4045C383.627 49.5487 380.519 55.6911 378.447 63.8315C376.375 71.824 375.339 81.9626 375.339 94.2473C375.339 106.532 376.375 116.745 378.447 124.885C380.519 132.878 383.627 139.02 387.772 143.312C392.064 147.456 396.726 150.343 401.758 151.971C406.791 153.451 413.007 154.191 420.407 154.191C427.808 154.191 434.024 153.451 439.057 151.971C444.089 150.343 448.677 147.456 452.821 143.312C457.114 139.02 460.296 132.878 462.368 124.885C464.44 116.745 465.476 106.532 465.476 94.2473C465.476 81.9626 464.44 71.824 462.368 63.8315C460.296 55.6911 457.114 49.5487 452.821 45.4045C448.677 41.1122 444.089 38.226 439.057 36.746ZM460.148 145.088C452.155 155.597 438.909 160.851 420.407 160.851C401.906 160.851 388.66 155.597 380.667 145.088C372.675 134.58 368.678 117.633 368.678 94.2473C368.678 70.8619 372.675 53.915 380.667 43.4063C388.66 32.8977 401.906 27.6434 420.407 27.6434C438.909 27.6434 452.155 32.8977 460.148 43.4063C468.14 53.915 472.136 70.8619 472.136 94.2473C472.136 117.633 468.14 134.58 460.148 145.088Z"/>
<path d="M508.867 158.631V29.8636H515.528L587.904 146.42V29.8636H594.564V158.631H587.904L515.528 41.8523V158.631H508.867Z"/>
<path d="M795.507 3.22201V9.8824H743.334V158.631H736.674V9.8824H684.5V3.22201H795.507Z"/>
<path d="M884.817 36.746C879.784 35.1179 873.568 34.3038 866.168 34.3038C858.767 34.3038 852.551 35.1179 847.519 36.746C842.486 38.226 837.824 41.1122 833.532 45.4045C829.388 49.5487 826.279 55.6911 824.207 63.8315C822.135 71.824 821.099 81.9626 821.099 94.2473C821.099 106.532 822.135 116.745 824.207 124.885C826.279 132.878 829.388 139.02 833.532 143.312C837.824 147.456 842.486 150.343 847.519 151.971C852.551 153.451 858.767 154.191 866.168 154.191C873.568 154.191 879.784 153.451 884.817 151.971C889.849 150.343 894.437 147.456 898.582 143.312C902.874 139.02 906.056 132.878 908.128 124.885C910.2 116.745 911.236 106.532 911.236 94.2473C911.236 81.9626 910.2 71.824 908.128 63.8315C906.056 55.6911 902.874 49.5487 898.582 45.4045C894.437 41.1122 889.849 38.226 884.817 36.746ZM905.908 145.088C897.916 155.597 884.669 160.851 866.168 160.851C847.667 160.851 834.42 155.597 826.427 145.088C818.435 134.58 814.439 117.633 814.439 94.2473C814.439 70.8619 818.435 53.915 826.427 43.4063C834.42 32.8977 847.667 27.6434 866.168 27.6434C884.669 27.6434 897.916 32.8977 905.908 43.4063C913.9 53.915 917.897 70.8619 917.897 94.2473C917.897 117.633 913.9 134.58 905.908 145.088Z"/>
<path d="M1028.78 151.971V158.631H954.628V29.8636H961.288V151.971H1028.78Z"/>
<path d="M1054.36 29.8636H1061.02V158.631H1054.36V29.8636Z"/>
<path d="M1197.05 29.8636L1141.55 160.851L1086.05 29.8636H1093.15L1141.55 143.756L1189.95 29.8636H1197.05Z"/>
<path d="M1308.31 145.532C1300.17 155.745 1286.85 160.851 1268.35 160.851C1249.85 160.851 1236.6 155.597 1228.61 145.088C1220.62 134.58 1216.62 117.633 1216.62 94.2473C1216.62 70.8619 1220.62 53.915 1228.61 43.4063C1236.6 32.8977 1249.85 27.6434 1268.35 27.6434C1289.81 27.6434 1304.39 34.6738 1312.09 48.7346L1257.69 94.2473H1247.26L1303.43 47.4026C1296.91 38.6701 1285.22 34.3038 1268.35 34.3038C1260.95 34.3038 1254.73 35.1179 1249.7 36.746C1244.67 38.226 1240.01 41.1122 1235.71 45.4045C1231.57 49.5487 1228.46 55.6911 1226.39 63.8315C1224.32 71.824 1223.28 81.9626 1223.28 94.2473C1223.28 106.532 1224.32 116.745 1226.39 124.885C1228.46 132.878 1231.57 139.02 1235.71 143.312C1240.01 147.456 1244.67 150.343 1249.7 151.971C1254.73 153.451 1260.95 154.191 1268.35 154.191C1285.22 154.191 1296.91 149.824 1303.43 141.092L1308.31 145.532Z"/>
<path d="M1397.97 94.0253L1428.17 158.631H1420.84L1389.76 92.0272C1390.05 91.8792 1391.31 91.2871 1393.53 90.2511C1395.9 89.067 1397.53 88.2529 1398.42 87.8089C1399.3 87.2169 1400.78 86.2548 1402.86 84.9227C1404.93 83.5907 1406.48 82.3326 1407.52 81.1485C1408.55 79.8165 1409.66 78.3364 1410.85 76.7083C1412.18 74.9322 1413.14 73.0081 1413.73 70.9359C1414.33 68.7158 1414.62 66.3477 1414.62 63.8315C1414.62 54.507 1410.18 47.6246 1401.3 43.1843C1392.42 38.7441 1381.39 36.5239 1368.22 36.5239H1350.46V158.631H1343.8V29.8636H1368.22C1385.69 29.8636 1398.86 32.8977 1407.74 38.9661C1416.77 45.0344 1421.28 53.3229 1421.28 63.8315C1421.28 70.6399 1418.99 76.7083 1414.4 82.0366C1409.81 87.2169 1404.34 91.2131 1397.97 94.0253Z"/>
</mask>
<path d="M23.9793 151.971H105.68L58.6133 22.5371L9.10441 158.631H2L58.6133 3L115.227 158.631H23.9793V151.971Z" stroke="#4C6E8B" stroke-width="2" mask="url(#path-1-outside-1)"/>
<path d="M152.058 151.971H224.434L178.922 44.7384L130.523 158.631H123.418L178.922 27.6434L234.425 158.631H152.058V151.971Z" stroke="#4C6E8B" stroke-width="2" mask="url(#path-1-outside-1)"/>
<path d="M313.925 94.0253L344.118 158.631H336.792L305.71 92.0272C306.006 91.8792 307.264 91.2871 309.484 90.2511C311.852 89.067 313.481 88.2529 314.369 87.8089C315.257 87.2169 316.737 86.2548 318.809 84.9227C320.881 83.5907 322.435 82.3326 323.471 81.1485C324.507 79.8165 325.617 78.3364 326.801 76.7083C328.133 74.9322 329.095 73.0081 329.687 70.9359C330.28 68.7158 330.576 66.3477 330.576 63.8315C330.576 54.507 326.135 47.6246 317.255 43.1843C308.374 38.7441 297.348 36.5239 284.175 36.5239H266.414V158.631H259.753V29.8636H284.175C301.64 29.8636 314.813 32.8977 323.693 38.9661C332.722 45.0344 337.236 53.3229 337.236 63.8315C337.236 70.6399 334.942 76.7083 330.354 82.0366C325.765 87.2169 320.289 91.2131 313.925 94.0253Z" stroke="#4C6E8B" stroke-width="2" mask="url(#path-1-outside-1)"/>
<path d="M439.057 36.746C434.024 35.1179 427.808 34.3038 420.407 34.3038C413.007 34.3038 406.791 35.1179 401.758 36.746C396.726 38.226 392.064 41.1122 387.772 45.4045C383.627 49.5487 380.519 55.6911 378.447 63.8315C376.375 71.824 375.339 81.9626 375.339 94.2473C375.339 106.532 376.375 116.745 378.447 124.885C380.519 132.878 383.627 139.02 387.772 143.312C392.064 147.456 396.726 150.343 401.758 151.971C406.791 153.451 413.007 154.191 420.407 154.191C427.808 154.191 434.024 153.451 439.057 151.971C444.089 150.343 448.677 147.456 452.821 143.312C457.114 139.02 460.296 132.878 462.368 124.885C464.44 116.745 465.476 106.532 465.476 94.2473C465.476 81.9626 464.44 71.824 462.368 63.8315C460.296 55.6911 457.114 49.5487 452.821 45.4045C448.677 41.1122 444.089 38.226 439.057 36.746ZM460.148 145.088C452.155 155.597 438.909 160.851 420.407 160.851C401.906 160.851 388.66 155.597 380.667 145.088C372.675 134.58 368.678 117.633 368.678 94.2473C368.678 70.8619 372.675 53.915 380.667 43.4063C388.66 32.8977 401.906 27.6434 420.407 27.6434C438.909 27.6434 452.155 32.8977 460.148 43.4063C468.14 53.915 472.136 70.8619 472.136 94.2473C472.136 117.633 468.14 134.58 460.148 145.088Z" stroke="#4C6E8B" stroke-width="2" mask="url(#path-1-outside-1)"/>
<path d="M508.867 158.631V29.8636H515.528L587.904 146.42V29.8636H594.564V158.631H587.904L515.528 41.8523V158.631H508.867Z" stroke="#4C6E8B" stroke-width="2" mask="url(#path-1-outside-1)"/>
<path d="M795.507 3.22201V9.8824H743.334V158.631H736.674V9.8824H684.5V3.22201H795.507Z" stroke="#4C6E8B" stroke-width="2" mask="url(#path-1-outside-1)"/>
<path d="M884.817 36.746C879.784 35.1179 873.568 34.3038 866.168 34.3038C858.767 34.3038 852.551 35.1179 847.519 36.746C842.486 38.226 837.824 41.1122 833.532 45.4045C829.388 49.5487 826.279 55.6911 824.207 63.8315C822.135 71.824 821.099 81.9626 821.099 94.2473C821.099 106.532 822.135 116.745 824.207 124.885C826.279 132.878 829.388 139.02 833.532 143.312C837.824 147.456 842.486 150.343 847.519 151.971C852.551 153.451 858.767 154.191 866.168 154.191C873.568 154.191 879.784 153.451 884.817 151.971C889.849 150.343 894.437 147.456 898.582 143.312C902.874 139.02 906.056 132.878 908.128 124.885C910.2 116.745 911.236 106.532 911.236 94.2473C911.236 81.9626 910.2 71.824 908.128 63.8315C906.056 55.6911 902.874 49.5487 898.582 45.4045C894.437 41.1122 889.849 38.226 884.817 36.746ZM905.908 145.088C897.916 155.597 884.669 160.851 866.168 160.851C847.667 160.851 834.42 155.597 826.427 145.088C818.435 134.58 814.439 117.633 814.439 94.2473C814.439 70.8619 818.435 53.915 826.427 43.4063C834.42 32.8977 847.667 27.6434 866.168 27.6434C884.669 27.6434 897.916 32.8977 905.908 43.4063C913.9 53.915 917.897 70.8619 917.897 94.2473C917.897 117.633 913.9 134.58 905.908 145.088Z" stroke="#4C6E8B" stroke-width="2" mask="url(#path-1-outside-1)"/>
<path d="M1028.78 151.971V158.631H954.628V29.8636H961.288V151.971H1028.78Z" stroke="#4C6E8B" stroke-width="2" mask="url(#path-1-outside-1)"/>
<path d="M1054.36 29.8636H1061.02V158.631H1054.36V29.8636Z" stroke="#4C6E8B" stroke-width="2" mask="url(#path-1-outside-1)"/>
<path d="M1197.05 29.8636L1141.55 160.851L1086.05 29.8636H1093.15L1141.55 143.756L1189.95 29.8636H1197.05Z" stroke="#4C6E8B" stroke-width="2" mask="url(#path-1-outside-1)"/>
<path d="M1308.31 145.532C1300.17 155.745 1286.85 160.851 1268.35 160.851C1249.85 160.851 1236.6 155.597 1228.61 145.088C1220.62 134.58 1216.62 117.633 1216.62 94.2473C1216.62 70.8619 1220.62 53.915 1228.61 43.4063C1236.6 32.8977 1249.85 27.6434 1268.35 27.6434C1289.81 27.6434 1304.39 34.6738 1312.09 48.7346L1257.69 94.2473H1247.26L1303.43 47.4026C1296.91 38.6701 1285.22 34.3038 1268.35 34.3038C1260.95 34.3038 1254.73 35.1179 1249.7 36.746C1244.67 38.226 1240.01 41.1122 1235.71 45.4045C1231.57 49.5487 1228.46 55.6911 1226.39 63.8315C1224.32 71.824 1223.28 81.9626 1223.28 94.2473C1223.28 106.532 1224.32 116.745 1226.39 124.885C1228.46 132.878 1231.57 139.02 1235.71 143.312C1240.01 147.456 1244.67 150.343 1249.7 151.971C1254.73 153.451 1260.95 154.191 1268.35 154.191C1285.22 154.191 1296.91 149.824 1303.43 141.092L1308.31 145.532Z" stroke="#4C6E8B" stroke-width="2" mask="url(#path-1-outside-1)"/>
<path d="M1397.97 94.0253L1428.17 158.631H1420.84L1389.76 92.0272C1390.05 91.8792 1391.31 91.2871 1393.53 90.2511C1395.9 89.067 1397.53 88.2529 1398.42 87.8089C1399.3 87.2169 1400.78 86.2548 1402.86 84.9227C1404.93 83.5907 1406.48 82.3326 1407.52 81.1485C1408.55 79.8165 1409.66 78.3364 1410.85 76.7083C1412.18 74.9322 1413.14 73.0081 1413.73 70.9359C1414.33 68.7158 1414.62 66.3477 1414.62 63.8315C1414.62 54.507 1410.18 47.6246 1401.3 43.1843C1392.42 38.7441 1381.39 36.5239 1368.22 36.5239H1350.46V158.631H1343.8V29.8636H1368.22C1385.69 29.8636 1398.86 32.8977 1407.74 38.9661C1416.77 45.0344 1421.28 53.3229 1421.28 63.8315C1421.28 70.6399 1418.99 76.7083 1414.4 82.0366C1409.81 87.2169 1404.34 91.2131 1397.97 94.0253Z" stroke="#4C6E8B" stroke-width="2" mask="url(#path-1-outside-1)"/>
</svg>

<svg width="0" height="0" class="hidden">
  <symbol viewBox="0 0 1430 164" fill="none" xmlns="http://www.w3.org/2000/svg" id="title">
    <mask id="a" maskUnits="userSpaceOnUse" x="0" y="0" width="1430" height="164" fill="#000">
      <path fill="#fff" d="M0 0h1430v164H0z"></path>
      <path d="M23.98 151.971h81.7L58.613 22.537 9.104 158.631H2L58.613 3l56.614 155.631H23.979v-6.66zm128.078 0h72.376L178.922 44.738l-48.399 113.893h-7.105l55.504-130.988 55.503 130.988h-82.367v-6.66zm161.867-57.946l30.193 64.606h-7.326L305.71 92.027c.296-.148 1.554-.74 3.774-1.776l4.885-2.442a362.52 362.52 0 0 1 4.44-2.886c2.072-1.332 3.626-2.59 4.662-3.775a172.968 172.968 0 0 0 3.33-4.44 17.626 17.626 0 0 0 2.886-5.772c.593-2.22.889-4.588.889-7.105 0-9.324-4.441-16.206-13.321-20.647-8.881-4.44-19.907-6.66-33.08-6.66h-17.761V158.63h-6.661V29.864h24.422c17.465 0 30.638 3.034 39.518 9.102 9.029 6.068 13.543 14.357 13.543 24.865 0 6.809-2.294 12.877-6.882 18.206-4.589 5.18-10.065 9.176-16.429 11.988zm125.132-57.279c-5.033-1.628-11.249-2.442-18.65-2.442-7.4 0-13.616.814-18.649 2.442-5.032 1.48-9.694 4.366-13.986 8.658-4.145 4.145-7.253 10.287-9.325 18.427-2.072 7.993-3.108 18.132-3.108 30.416 0 12.285 1.036 22.498 3.108 30.638 2.072 7.993 5.18 14.135 9.325 18.427 4.292 4.144 8.954 7.031 13.986 8.659 5.033 1.48 11.249 2.22 18.649 2.22 7.401 0 13.617-.74 18.65-2.22 5.032-1.628 9.62-4.515 13.764-8.659 4.293-4.292 7.475-10.434 9.547-18.427 2.072-8.14 3.108-18.353 3.108-30.638 0-12.284-1.036-22.423-3.108-30.416-2.072-8.14-5.254-14.282-9.547-18.427-4.144-4.292-8.732-7.178-13.764-8.658zm21.091 108.342c-7.993 10.509-21.239 15.763-39.741 15.763-18.501 0-31.747-5.254-39.74-15.763-7.992-10.508-11.989-27.455-11.989-50.84 0-23.386 3.997-40.333 11.989-50.842 7.993-10.508 21.239-15.763 39.74-15.763 18.502 0 31.748 5.255 39.741 15.763 7.992 10.509 11.988 27.456 11.988 50.841 0 23.386-3.996 40.333-11.988 50.841zm48.719 13.543V29.864h6.661l72.376 116.556V29.864h6.66V158.63h-6.66L515.528 41.852v116.779h-6.661zM795.507 3.222v6.66h-52.173v148.749h-6.66V9.882H684.5v-6.66h111.007zm89.31 33.524c-5.033-1.628-11.249-2.442-18.649-2.442-7.401 0-13.617.814-18.649 2.442-5.033 1.48-9.695 4.366-13.987 8.658-4.144 4.145-7.253 10.287-9.325 18.427-2.072 7.993-3.108 18.132-3.108 30.416 0 12.285 1.036 22.498 3.108 30.638 2.072 7.993 5.181 14.135 9.325 18.427 4.292 4.144 8.954 7.031 13.987 8.659 5.032 1.48 11.248 2.22 18.649 2.22 7.4 0 13.616-.74 18.649-2.22 5.032-1.628 9.62-4.515 13.765-8.659 4.292-4.292 7.474-10.434 9.546-18.427 2.072-8.14 3.108-18.353 3.108-30.638 0-12.284-1.036-22.423-3.108-30.416-2.072-8.14-5.254-14.282-9.546-18.427-4.145-4.292-8.733-7.178-13.765-8.658zm21.091 108.342c-7.992 10.509-21.239 15.763-39.74 15.763s-31.748-5.254-39.741-15.763c-7.992-10.508-11.988-27.455-11.988-50.84 0-23.386 3.996-40.333 11.988-50.842 7.993-10.508 21.24-15.763 39.741-15.763s31.748 5.255 39.74 15.763c7.992 10.509 11.989 27.456 11.989 50.841 0 23.386-3.997 40.333-11.989 50.841zm122.872 6.883v6.66h-74.152V29.864h6.66V151.97h67.492zm25.58-122.107h6.66V158.63h-6.66V29.864zm142.69 0l-55.5 130.987-55.5-130.987h7.1l48.4 113.892 48.4-113.892h7.1zm111.26 115.668c-8.14 10.213-21.46 15.319-39.96 15.319s-31.75-5.254-39.74-15.763c-7.99-10.508-11.99-27.455-11.99-50.84 0-23.386 4-40.333 11.99-50.842 7.99-10.508 21.24-15.763 39.74-15.763 21.46 0 36.04 7.03 43.74 21.092l-54.4 45.512h-10.43l56.17-46.844c-6.52-8.733-18.21-13.1-35.08-13.1-7.4 0-13.62.815-18.65 2.443-5.03 1.48-9.69 4.366-13.99 8.658-4.14 4.145-7.25 10.287-9.32 18.427-2.07 7.993-3.11 18.132-3.11 30.416 0 12.285 1.04 22.498 3.11 30.638 2.07 7.993 5.18 14.135 9.32 18.427 4.3 4.144 8.96 7.031 13.99 8.659 5.03 1.48 11.25 2.22 18.65 2.22 16.87 0 28.56-4.367 35.08-13.099l4.88 4.44zm89.66-51.507l30.2 64.606h-7.33l-31.08-66.604c.29-.148 1.55-.74 3.77-1.776l4.89-2.442c.88-.592 2.36-1.554 4.44-2.886 2.07-1.332 3.62-2.59 4.66-3.775 1.03-1.331 2.14-2.812 3.33-4.44a17.61 17.61 0 0 0 2.88-5.772c.6-2.22.89-4.588.89-7.105 0-9.324-4.44-16.206-13.32-20.647-8.88-4.44-19.91-6.66-33.08-6.66h-17.76V158.63h-6.66V29.864h24.42c17.47 0 30.64 3.034 39.52 9.102 9.03 6.068 13.54 14.357 13.54 24.865 0 6.809-2.29 12.877-6.88 18.206-4.59 5.18-10.06 9.176-16.43 11.988z"></path>
    </mask>
    <path d="M23.98 151.971h81.7L58.613 22.537 9.104 158.631H2L58.613 3l56.614 155.631H23.979v-6.66zm128.078 0h72.376L178.922 44.738l-48.399 113.893h-7.105l55.504-130.988 55.503 130.988h-82.367v-6.66zm161.867-57.946l30.193 64.606h-7.326L305.71 92.027c.296-.148 1.554-.74 3.774-1.776l4.885-2.442a362.52 362.52 0 0 1 4.44-2.886c2.072-1.332 3.626-2.59 4.662-3.775a172.968 172.968 0 0 0 3.33-4.44 17.626 17.626 0 0 0 2.886-5.772c.593-2.22.889-4.588.889-7.105 0-9.324-4.441-16.206-13.321-20.647-8.881-4.44-19.907-6.66-33.08-6.66h-17.761V158.63h-6.661V29.864h24.422c17.465 0 30.638 3.034 39.518 9.102 9.029 6.068 13.543 14.357 13.543 24.865 0 6.809-2.294 12.877-6.882 18.206-4.589 5.18-10.065 9.176-16.429 11.988zm125.132-57.279c-5.033-1.628-11.249-2.442-18.65-2.442-7.4 0-13.616.814-18.649 2.442-5.032 1.48-9.694 4.366-13.986 8.658-4.145 4.145-7.253 10.287-9.325 18.427-2.072 7.993-3.108 18.132-3.108 30.416 0 12.285 1.036 22.498 3.108 30.638 2.072 7.993 5.18 14.135 9.325 18.427 4.292 4.144 8.954 7.031 13.986 8.659 5.033 1.48 11.249 2.22 18.649 2.22 7.401 0 13.617-.74 18.65-2.22 5.032-1.628 9.62-4.515 13.764-8.659 4.293-4.292 7.475-10.434 9.547-18.427 2.072-8.14 3.108-18.353 3.108-30.638 0-12.284-1.036-22.423-3.108-30.416-2.072-8.14-5.254-14.282-9.547-18.427-4.144-4.292-8.732-7.178-13.764-8.658zm21.091 108.342c-7.993 10.509-21.239 15.763-39.741 15.763-18.501 0-31.747-5.254-39.74-15.763-7.992-10.508-11.989-27.455-11.989-50.84 0-23.386 3.997-40.333 11.989-50.842 7.993-10.508 21.239-15.763 39.74-15.763 18.502 0 31.748 5.255 39.741 15.763 7.992 10.509 11.988 27.456 11.988 50.841 0 23.386-3.996 40.333-11.988 50.841zm48.719 13.543V29.864h6.661l72.376 116.556V29.864h6.66V158.63h-6.66L515.528 41.852v116.779h-6.661zM795.507 3.222v6.66h-52.173v148.749h-6.66V9.882H684.5v-6.66h111.007zm89.31 33.524c-5.033-1.628-11.249-2.442-18.649-2.442-7.401 0-13.617.814-18.649 2.442-5.033 1.48-9.695 4.366-13.987 8.658-4.144 4.145-7.253 10.287-9.325 18.427-2.072 7.993-3.108 18.132-3.108 30.416 0 12.285 1.036 22.498 3.108 30.638 2.072 7.993 5.181 14.135 9.325 18.427 4.292 4.144 8.954 7.031 13.987 8.659 5.032 1.48 11.248 2.22 18.649 2.22 7.4 0 13.616-.74 18.649-2.22 5.032-1.628 9.62-4.515 13.765-8.659 4.292-4.292 7.474-10.434 9.546-18.427 2.072-8.14 3.108-18.353 3.108-30.638 0-12.284-1.036-22.423-3.108-30.416-2.072-8.14-5.254-14.282-9.546-18.427-4.145-4.292-8.733-7.178-13.765-8.658zm21.091 108.342c-7.992 10.509-21.239 15.763-39.74 15.763s-31.748-5.254-39.741-15.763c-7.992-10.508-11.988-27.455-11.988-50.84 0-23.386 3.996-40.333 11.988-50.842 7.993-10.508 21.24-15.763 39.741-15.763s31.748 5.255 39.74 15.763c7.992 10.509 11.989 27.456 11.989 50.841 0 23.386-3.997 40.333-11.989 50.841zm122.872 6.883v6.66h-74.152V29.864h6.66V151.97h67.492zm25.58-122.107h6.66V158.63h-6.66V29.864zm142.69 0l-55.5 130.987-55.5-130.987h7.1l48.4 113.892 48.4-113.892h7.1zm111.26 115.668c-8.14 10.213-21.46 15.319-39.96 15.319s-31.75-5.254-39.74-15.763c-7.99-10.508-11.99-27.455-11.99-50.84 0-23.386 4-40.333 11.99-50.842 7.99-10.508 21.24-15.763 39.74-15.763 21.46 0 36.04 7.03 43.74 21.092l-54.4 45.512h-10.43l56.17-46.844c-6.52-8.733-18.21-13.1-35.08-13.1-7.4 0-13.62.815-18.65 2.443-5.03 1.48-9.69 4.366-13.99 8.658-4.14 4.145-7.25 10.287-9.32 18.427-2.07 7.993-3.11 18.132-3.11 30.416 0 12.285 1.04 22.498 3.11 30.638 2.07 7.993 5.18 14.135 9.32 18.427 4.3 4.144 8.96 7.031 13.99 8.659 5.03 1.48 11.25 2.22 18.65 2.22 16.87 0 28.56-4.367 35.08-13.099l4.88 4.44zm89.66-51.507l30.2 64.606h-7.33l-31.08-66.604c.29-.148 1.55-.74 3.77-1.776l4.89-2.442c.88-.592 2.36-1.554 4.44-2.886 2.07-1.332 3.62-2.59 4.66-3.775 1.03-1.331 2.14-2.812 3.33-4.44a17.61 17.61 0 0 0 2.88-5.772c.6-2.22.89-4.588.89-7.105 0-9.324-4.44-16.206-13.32-20.647-8.88-4.44-19.91-6.66-33.08-6.66h-17.76V158.63h-6.66V29.864h24.42c17.47 0 30.64 3.034 39.52 9.102 9.03 6.068 13.54 14.357 13.54 24.865 0 6.809-2.29 12.877-6.88 18.206-4.59 5.18-10.06 9.176-16.43 11.988z"
      stroke="#4C6E8B" stroke-width="2" mask="url(#a)"></path>
  </symbol>
</svg>

<svg width="0" height="0" class="hidden">
  <symbol viewBox="0 0 283 604" fill="none" xmlns="http://www.w3.org/2000/svg" id="logo">
    <path d="M269.201 116.502v15.45H148.176V477h-15.45V131.952H11.702v-15.45h257.499z" fill="#7F3333"></path>
    <path d="M60.255 461.55h189.519l-109.18-300.243L25.75 477H9.27l131.324-361.013L271.918 477H60.255v-15.45z" fill="#AF9880"></path>
  </symbol>
</svg>
